img/Telegram.svg

<svg width="32" height="32" viewBox="0 0 32 32" fill="none" xmlns="http://www.w3.org/2000/svg">
<path d="M16 32C24.8365 32 32 24.8365 32 16C32 7.16346 24.8365 0 16 0C7.16346 0 0 7.16346 0 16C0 24.8365 7.16346 32 16 32Z" fill="#34AADF"/>
<path d="M8.16519 15.9768C8.16519 15.9768 14.5983 13.4224 16.8294 12.523C17.6847 12.1632 20.5852 11.0119 20.5852 11.0119C20.5852 11.0119 21.9239 10.5082 21.8123 11.7315C21.7751 12.2352 21.4776 13.9981 21.1801 15.9049C20.7339 18.6032 20.2505 21.5534 20.2505 21.5534C20.2505 21.5534 20.1761 22.3809 19.544 22.5248C18.9118 22.6687 17.8706 22.0212 17.6847 21.8772C17.5359 21.7693 14.8958 20.1503 13.9289 19.3588C13.6686 19.1429 13.3712 18.7112 13.9661 18.2075C15.3048 17.0202 16.9038 15.5451 17.8706 14.6097C18.3168 14.178 18.763 13.1706 16.9038 14.3938C14.2636 16.1567 11.6606 17.8117 11.6606 17.8117C11.6606 17.8117 11.0657 18.1715 9.9501 17.8477C8.8345 17.5239 7.533 17.0922 7.533 17.0922C7.533 17.0922 6.6406 16.5525 8.16519 15.9768Z" fill="white"/>
</svg>

<svg width="32" height="32" fill="none" xmlns="http://www.w3.org/2000/svg"><path d="M16 32c8.837 0 16-7.163 16-16S24.837 0 16 0 0 7.163 0 16s7.163 16 16 16z" fill="#34AADF"/><path d="M8.165 15.977s6.433-2.555 8.664-3.454c.856-.36 3.756-1.511 3.756-1.511s1.339-.504 1.227.72c-.037.503-.334 2.266-.632 4.173-.446 2.698-.93 5.648-.93 5.648s-.074.828-.706.972c-.632.144-1.673-.504-1.86-.648-.148-.108-2.788-1.727-3.755-2.518-.26-.216-.558-.648.037-1.152a140.198 140.198 0 003.905-3.597c.446-.432.892-1.44-.967-.216-2.64 1.763-5.243 3.418-5.243 3.418s-.595.36-1.71.036c-1.117-.324-2.418-.756-2.418-.756s-.892-.54.632-1.115z" fill="#fff"/></svg>
